X: 10102
M: C
L: 1/8
K: F
|:\
f2 f>f f2 g/f/e/d/ | c2 c>c c2 c/B/A/G/ |\
EFGA B2 A2 | G2 G>G G2 z2 :|
|:\
c2 c>c c2 f2 | d2 B2 c2 A2 |\
c2 c>c cdef | B2 A2 G2 C2 |\


